polaris-icons/icons/new-icons/PaymentsMajor.svg

<svg width="20" height="20" viewBox="0 0 20 20" fill="none" xmlns="http://www.w3.org/2000/svg">
<path fill-rule="evenodd" clip-rule="evenodd" d="M9.62109 4H14.8789C15.2743 3.99999 15.6154 3.99998 15.8963 4.02293C16.1928 4.04715 16.4877 4.10064 16.7715 4.24524C17.1948 4.46095 17.5391 4.80516 17.7548 5.22852C17.8994 5.51231 17.9528 5.80722 17.9771 6.10373C18 6.38466 18 6.72572 18 7.12108V9.37893C18 9.77428 18 10.1153 17.9771 10.3963C17.9528 10.6928 17.8994 10.9877 17.7548 11.2715C17.5391 11.6948 17.1948 12.0391 16.7715 12.2548C16.4877 12.3994 16.1928 12.4528 15.8963 12.4771C15.6153 12.5 15.2743 12.5 14.8789 12.5L12.2982 12.5C12.2183 12.5833 12.1301 12.6601 12.0341 12.7292L9.3045 14.6945C8.73887 15.1019 8.37418 15.3645 7.96933 15.5536C7.61076 15.721 7.23267 15.8429 6.84386 15.9166C6.40487 15.9997 5.95544 15.9997 5.25839 15.9996L3.75 15.9996C3.33579 15.9996 3 15.6638 3 15.2496C3 14.8354 3.33579 14.4996 3.75 14.4996H5.1857C5.97967 14.4996 6.28085 14.4965 6.56469 14.4428C6.83072 14.3924 7.08941 14.3089 7.33475 14.1944C7.5965 14.0722 7.84269 13.8987 8.48702 13.4347L11.1576 11.5119C11.2997 11.4096 11.3641 11.2303 11.3196 11.0609C11.2606 10.837 11.0325 10.702 10.8079 10.7582L5.9319 11.9772C5.53006 12.0776 5.12285 11.8333 5.02239 11.4315C4.92193 11.0296 5.16625 10.6224 5.5681 10.522L6.5 10.289L6.5 8.0003C5.91093 8.00186 5.67852 8.01151 5.46739 8.0622C5.23781 8.11732 5.01833 8.20823 4.81702 8.33159C4.60756 8.45995 4.41854 8.64215 3.87444 9.18625L3.28033 9.78036C2.98744 10.0733 2.51256 10.0733 2.21967 9.78036C1.92678 9.48747 1.92678 9.0126 2.21967 8.7197L2.8742 8.06515C3.33479 7.60429 3.65361 7.28529 4.03327 7.05263C4.36879 6.84703 4.73458 6.69551 5.11722 6.60365C5.51447 6.50827 5.93019 6.50051 6.50421 6.50003C6.50741 6.35707 6.51304 6.22481 6.52293 6.10373C6.54715 5.80722 6.60064 5.51231 6.74524 5.22852C6.96095 4.80516 7.30516 4.46095 7.72852 4.24524C8.01231 4.10064 8.30722 4.04715 8.60373 4.02293C8.88465 3.99998 9.22575 3.99999 9.62109 4ZM14.85 11H12.8262C12.8167 10.8929 12.7982 10.7856 12.7702 10.6792C12.5022 9.66105 11.4654 9.04763 10.4441 9.30297L8 9.91398L8 8.5H16.5L16.5 9.35C16.5 9.78242 16.4994 10.0616 16.4821 10.2741C16.4654 10.4779 16.4372 10.5534 16.4183 10.5905C16.3464 10.7316 16.2316 10.8464 16.0905 10.9183C16.0534 10.9372 15.9779 10.9654 15.7741 10.9821C15.5616 10.9994 15.2824 11 14.85 11ZM16.4954 6.5H8.00458C8.00722 6.39599 8.01139 6.30617 8.01795 6.22588C8.03459 6.02213 8.06285 5.94659 8.08175 5.90951C8.15365 5.76839 8.26839 5.65365 8.40951 5.58175C8.44659 5.56285 8.52213 5.53459 8.72588 5.51795C8.93838 5.50059 9.21759 5.5 9.65 5.5H14.85C15.2824 5.5 15.5616 5.50059 15.7741 5.51795C15.9779 5.53459 16.0534 5.56285 16.0905 5.58175C16.2316 5.65365 16.3464 5.76839 16.4183 5.90951C16.4372 5.94659 16.4654 6.02213 16.4821 6.22588C16.4886 6.30617 16.4928 6.39599 16.4954 6.5Z" fill="#4A4A4A"/>
</svg>

<svg viewBox="0 0 20 20" xmlns="http://www.w3.org/2000/svg"><path fill-rule="evenodd" d="M9.621 4h5.258c.395 0 .736 0 1.017.023.297.024.592.078.875.222.424.216.768.56.984.984.144.283.198.578.222.875.023.28.023.622.023 1.017v2.258c0 .395 0 .736-.023 1.017-.024.297-.078.592-.222.875a2.25 2.25 0 0 1-.983.984c-.284.144-.58.198-.876.222-.28.023-.622.023-1.017.023h-2.58a1.92 1.92 0 0 1-.265.23l-2.73 1.964c-.565.408-.93.67-1.335.86-.358.167-.736.289-1.125.363-.44.083-.889.083-1.586.083h-1.508a.75.75 0 0 1 0-1.5h1.436c.794 0 1.095-.004 1.379-.057.266-.05.524-.134.77-.249.261-.122.508-.295 1.152-.76l2.67-1.922a.423.423 0 0 0-.35-.754l-4.875 1.22a.75.75 0 0 1-.364-1.456l.932-.233v-2.289c-.59.002-.821.012-1.033.062a2.25 2.25 0 0 0-.65.27c-.21.128-.398.31-.943.854l-.594.594a.75.75 0 1 1-1.06-1.06l.654-.655c.46-.46.78-.78 1.16-1.012a3.75 3.75 0 0 1 1.083-.45c.397-.095.813-.102 1.387-.103.003-.143.009-.275.019-.396.024-.297.078-.592.222-.875a2.25 2.25 0 0 1 .984-.984c.283-.144.578-.198.875-.222.28-.023.622-.023 1.017-.023Zm5.229 7h-2.024a1.923 1.923 0 0 0-2.382-1.697l-2.444.611v-1.414h8.5v.85c0 .432 0 .712-.018.924-.017.204-.045.28-.064.317a.75.75 0 0 1-.328.327c-.037.02-.112.047-.316.064-.212.017-.492.018-.924.018Zm1.645-4.5h-8.49c.002-.104.006-.194.013-.274.017-.204.045-.28.064-.316a.75.75 0 0 1 .328-.328c.037-.02.112-.047.316-.064.212-.017.492-.018.924-.018h5.2c.432 0 .712 0 .924.018.204.017.28.045.316.064a.75.75 0 0 1 .328.328c.02.037.047.112.064.316.007.08.01.17.013.274Z" fill="#5C5F62"/></svg>
